X:1
T:Airship Cannonball.
T:Airship Cannonball.
T:Jess R. Batt
T:Jess R. Batt
T:1917
T:1917
T:1917
T:1917
C:Jess R. Batt
Z:Jess R. Batt
Z:1917
%%score 1 { 2 | 3 }
L:1/8
Q:1/4=114
M:2/4
K:Eb
V:1 treble nm="Voice"
V:2 treble nm="Piano"
V:3 bass 
V:1
"^Marcia" z4 | z4 | z4 | z4 | z4 | z4 | z4 | z4 | z4 || G3 G | ^FG FG | (B4 | B2) cd | e2 d2 | %14
w: |||||||||Hark a-||cheers|_ It's the|A- vi-|
w: ||||||||||||||
w: |||||||||We are|leav- ing U. S.|A.|_ On our|air- o-|
 c2 G2 | B3 =A | A3 A/A/ | GF =EF | c3 A/A/ | GF =EF | c3 c/d/ | ed cd | ed cd | (G4 | G2) z2 | %25
w: a- tion|Vo- lun-|teers For the|Old Red, White and|Blue They go|sail- ing staunch and|true, With the|Al- lies in their|fight for li- ber-|ty|_|
w: |||||||||||
w: planes at|break of|day Gener al|Persh ing and his|band A- *|wait in Jof- fre's|land A- *|midst the shot and|shell the can- nons|roar|_|
 G4 | ^FG FG | (B4 | B2) BB | e2 d2 | f2 e2 | (c4 | c2) z2 | e e2 d | e2 dd | B=A B=B | c G2 G | %37
w: Think|boys of Six- ty|One|_ Of what|our fore-|fath- ers|done|_|No use de-|lay- ing on|for- eign shores they're|wait- ing For|
w: ||||||||||||
w: Come|broth ers one and|all|_ Can't you|hear the|bu- gle|call|_|Long live old|glo- ry and|start in might- y|ear- ly So|
 F2 e2 | d2 c2 | (B4 | B2) z2 |: z"^Chorus." e dc | B4 | z e dc | B2 G=A | B2 c2 | d2 e2 | (A4 | %48
w: each and|eve- ry|one.|_|Come on a-|cross|Come on a-|cross Gener al|Persh ing's|call- ing|me|
w: |||||||||||
w: do not|let it|fall.|_||||||||
 A)A GF | G2 (F2 | F)G GD | F2 E2- | E2 GG | B2 BF | B2 cd | c_c (B2 | B4) | z e dc | B3 z | %59
w: _ With all your|Might boys|_ come join the|flight boys|_ V- I-|C- T- O-|R- Y for|Vic- to- ry|_|Come fol low|me|
w: |||||||||||
w: |||||||||||
 z e dc | B2 GA | B2 BB | B=A B=B | (c4 | c2) z2 | e e2 d | ee c2 | B B2 =B | cc BB | (B=A) (B=B) | %70
w: a- cross the|sea I will|lead with my|air- ship can non-|ball|_|O- ver to|dis tant lands|Wel comed with|out stretched hands the|U. S. * *|
w: |||||||||||
w: |||||||||||
 cd cB |1 (e4 | e2) z2 :|2 (e4 | e2) z2 |] %75
w: A vi a tion|corps.|_|corps.|_|
w: |||||
w: |||||
V:2
!f! [^efe'] [efe']2 [dfd'] | [e^fe'][dfd'] [cfc']2 | [Begb] [Beb]2 [=Be=b] | %3
 [Bdgb] [Bgb]2 [=Be=b] | [cec'][cec'] [Beb]2 | [Beb][=Ad=a] [Bdb][=Bd=b] | %6
 [cac'][dad'] [cad'][Bdb] | [ege']4 | [ege'] z [ee'] z ||!mp! [G,G][B,E]/[B,E]/ [B,E][G,B,EG] | %10
 [^F,B,^F][G,B,G] [F,B,F][G,B,G] | ([G,G][DF]/[DF]/ [DF][DF] | [G,B,DG]2) [CAc][DAd] | %13
 [Ee][GB] [Dc][GB] | [CA][EG] [G,G][B,^CE] | B[B,E]/[B,E]/ [B,E][B,E=A] | %16
 [_F,_F][DF] [DF][A,DFA]/[A,DFA]/ | [A,DG][A,DF] [A,=E][A,DF] | [Cc][FA]/[FA]/ [FA][DFA] | %19
 [A,DG][A,DF] [A,=E][A,DF] | [Cc][FA]/[FA]/ [FA][CAc]/[DAd]/ | [DAe][DAd] [CAc][DAd] | %22
 [EAe][DAd] [CAc][DAd] | [B,DEG][B,E]/[B,E]/ [B,E][B,E]/[B,E]/ | [B,DEG][B,F] [B,F][B,F] | %25
 [G,G][B,E]/[B,E]/ [B,E][B,E] | [=A,_D^F][A,EG] [A,EF][B,EG] | [G,G][DF]/[DF]/ [DF][DF] | %28
 [G,G][DF]/[DF]/ [B,DFB][B,DFB] | [Ee][GB] [Dc][GB] | [Ff][B_d] [Ee][GBd] | %31
 ([CEAc][EA]/[EA]/ [EA][EA] | [CEAc])[EA] [EA][EA] | [^Fce] [Fce]2 [=Fcd] | [^Fce]2 [Fc][Fc] | %35
 [GB][^F=A] [GB][FA] | [=Ec] [EG]2 [EG] | F2 [F=Ae]2 | [F=Ad]2 [EAc]2 | [B,DFB][DF] [DF][DF] | %40
 [B,DFB][DF] [DA][DA] |: z!p! [EGe]!f! [EGd][EGc] | [DFB]4 | z [Ee] [Ed][Ec] | [DB]2 [DG][DA] | %45
 [Dd][EG] [Cc][EG] | [Dd][GB] [Ee][GB] | ([A,A]D/E/ DD/E/ | [A,A])[A,A] [A,G][A,DF] | %49
 [G,G][B,D] [A,A][B,D] | [A,B,DF][B,DA] [=B,DG][B,D] | [F,F][CE] [G,G][B,D] | %52
 [G,G][B,D] [G,G][B,DGB] | [B,B][DF] [B,DA][F,B,F] | [B,B][DA] [CAc][DAd] | %55
 [CEc][_CF_c] ([B,EGB]2 | [B,EGB]4) | z [Ee] [Dd][CEc] | [Dd][DFA]/[DFA]/ [DFA][DFA] | %59
 z [EGe] [DGd][CEGc] | [B,B][EG] [G,EG][A,EA] | [B,B][EG] [B,EGB][B,EGB] | %62
 [B,_DB][=A,D=A] [B,DB][=B,=D=B] | [Cc][EA]/[EA]/ [EA][EA] | [CEAc][EA] [EA][EA] | %65
 [E^Fe] [EFe]2 [EFe] | [E^Fe][EFe] [EFe]2 | [EGB] [EGB]2 [DF=B] | [CEc][CEc] [B,EB][B,EB] | %69
 [B,DB][=A,D=A] [B,DB][=B,D=B] | [CAc][DAd] [CAc][DAB] |1 [EGe]B/B/ BB | B[FAd] [FAc][FAB] :|2 %73
 ([GBe]4 | [GBe]2) z2 |] %75
V:3
 [G,,G,] [G,,G,]2 [G,,G,] | [G,,G,][G,,G,] [G,,G,]2 | [A,,A,] [F,,F,]2 [F,,F,] | %3
 [A,,A,] [G,,G,]2 [G,,G,] | [A,,A,][A,,A,] [G,,G,]2 | [G,,G,][B,D] [B,,,B,,][A,B,D] | %6
 [F,,F,][B,D] [B,,,B,,][A,B,D] | [E,,E,]B,/C/ B,G, | E, z [E,,E,] z || [E,,E,]2 [B,,,B,,]2 | %10
 [E,,E,]2 [B,,,B,,]2 | [F,,F,]2 [B,,,B,,]2 | [F,,F,]2 [B,,,B,,]2 | [E,,E,]2 [B,,,B,,]2 | %14
 [E,,E,]2 [=E,,=E,]2 | [G,,G,]3 [_G,,_G,] | [F,,F,]2 [B,,,B,,]2 | [F,,F,]2 [B,,,B,,]2 | %18
 [F,,F,]2 [B,,,B,,]2 | [F,,F,]2 [B,,,B,,]2 | [F,,F,]2 [B,,,B,,]2 | [F,,F,]2 [B,,,B,,]2 | %22
 [F,,F,]2 [B,,,B,,]2 | [E,,E,]2 [D,,D,]2 | [E,,E,]2 [B,,,B,,]2 | [E,,E,]2 [B,,,B,,]2 | %26
 [E,,E,]2 [E,,E,]2 | [B,,,B,,]2 [A,,,A,,]2 | [B,,,B,,]2 [A,,,B,,]2 | [E,,E,]2 [B,,,B,,]2 | %30
 [E,,E,]2 [E,,E,]2 | [A,,A,]2 [G,,G,]2 | [F,,F,]2 [E,,E,]2 | [=A,,=A,]2 [A,,A,]2 | %34
 =A,,[E,=B,] A,,[E,B,] | B,,2 E,D, | C,[G,B,] C,[G,B,] | F,,[F,=A,C] F,,[F,A,C] | %38
 [F,,F,][G,,G,] [=A,,=A,][F,,F,] | [B,,B,]2 [A,,A,]2 | [G,,G,]2 [F,,F,]2 |: %41
 [E,,E,][G,B,] [B,,,B,,][G,B,] | [B,,B,][A,,A,] [G,,G,][F,,F,] | [E,,E,][G,B,] [B,,,B,,][G,B,] | %44
 [F,,F,][A,B,] B,,[A,B,] | [E,,E,]2 [B,,,B,,]2 | [E,,E,]2 [E,,E,]2 | [F,,F,]2 [B,,,B,,]2 | %48
 [F,,F,]2 [B,,,B,,]2 | [D,,D,]2 [B,,,B,,]2 | [D,,D,]2 [G,,,G,,]2 | [C,,C,]2 [G,,,G,,]2 | %52
 [C,,C,]2 [C,,C,]2 | [F,,F,]2 [B,,,B,,]2 | [F,,F,]2 [B,,,B,,]2 | [E,,E,]2 [B,,,B,,]2 | %56
 [F,,F,][D,,D,] [C,,C,][B,,,B,,] | [E,,E,]2 [B,,,B,,]2 | [F,,F,]2 [B,,,B,,]2 | %59
 [E,,E,]2 [B,,,B,,]2 | [E,,E,]2 [B,,,B,,]2 | [E,,E,]2 [B,,,B,,]2 | [E,,E,][E,G,] [E,,E,][E,G,] | %63
 [A,,A,]2 [G,,G,]2 | [F,,F,]2 [E,,E,]2 | [=A,,=A,]2 [A,,A,]2 | [=A,,=A,]2 [A,,A,]2 | %67
 [B,,B,] [B,,B,]2 [=G,,=G,] | [B,,A,][B,,A,] [G,,G,][G,,G,] | [F,,F,]2 [B,,,B,,]2 | %70
 [F,,F,][A,B,] B,,[A,B,] |1 [E,B,]B,/B,/ B,B, | B,B,, C,D, :|2 E,B,/C/ B,G, | E,2 E,, z |] %75

